Origami/32x32/apps/easystroke.svg

<svg width="32" height="32" version="1.1" viewBox="0 0 32 32" xmlns="http://www.w3.org/2000/svg">
 <path d="M 16,3 A 14,14 0 0 0 2,17 14,14 0 0 0 16,31 14,14 0 0 0 30,17 14,14 0 0 0 16,3 Z" style="opacity:.2"/>
 <path d="M 16,2 A 14,14 0 0 0 2,16 14,14 0 0 0 16,30 14,14 0 0 0 30,16 14,14 0 0 0 16,2 Z" style="fill:#4347dc"/>
 <path d="m10.993845 15.099854c7.255828-2.828973 14.531327 0.318514 14.015155 5.917006-0.184718 2.003486-3.110582 3.22499-5.193967 2.969987-3.545159-0.433919-6.735079-4.37169-8.068879-6.855295-1.569464-2.922425-0.881397-9.9205601 3.545911-10.133698 3.114289 0.2166092 4.117561 3.351986 4.512935 5.23002 1.570324 7.459089-6.768855 15.614134-11.450402 11.815277-3.0601762-2.483191-0.4693575-7.661605 2.6392471-8.943297z" style="fill:none;opacity:.2;stroke-width:2;stroke:#000000"/>
 <path d="m10.993845 14.1c7.255828-2.828973 14.531327 0.318514 14.015155 5.917006-0.184718 2.003486-3.110582 3.22499-5.193967 2.969987-3.545159-0.433919-6.735079-4.37169-8.068879-6.855295-1.569464-2.922425-0.881397-9.9205601 3.545911-10.133698 3.114289 0.2166092 4.117561 3.3519855 4.512935 5.23002 1.570324 7.459089-6.768855 15.614134-11.450402 11.815277-3.0601762-2.483191-0.4693575-7.661605 2.6392471-8.943297z" style="fill:none;stroke-width:2;stroke:#81ff86"/>
 <path d="M 16 2 A 14 14 0 0 0 2 16 A 14 14 0 0 0 2.0214844 16.414062 A 14 14 0 0 1 16 3 A 14 14 0 0 1 29.978516 16.585938 A 14 14 0 0 0 30 16 A 14 14 0 0 0 16 2 z" style="fill:#ffffff;opacity:.1"/>
</svg>

<svg xmlns="http://www.w3.org/2000/svg" width="32" height="32" version="1.1" viewBox="0 0 32 32">
 <path style="opacity:0.2" d="M 16,3 A 14,14 0 0 0 2,17 14,14 0 0 0 16,31 14,14 0 0 0 30,17 14,14 0 0 0 16,3 Z"/>
 <path style="fill:#4347dc" d="M 16,2 A 14,14 0 0 0 2,16 14,14 0 0 0 16,30 14,14 0 0 0 30,16 14,14 0 0 0 16,2 Z"/>
 <path style="opacity:0.2;fill:none;stroke:#000000;stroke-width:2" d="m 10.993845,15.099854 c 7.255828,-2.828973 14.531327,0.318514 14.015155,5.917006 -0.184718,2.003486 -3.110582,3.22499 -5.193967,2.969987 -3.545159,-0.433919 -6.735079,-4.37169 -8.068879,-6.855295 C 10.17669,14.209127 10.864757,7.2109919 15.292065,6.997854 18.406354,7.2144632 19.409626,10.34984 19.805,12.227874 21.375324,19.686963 13.036145,27.842008 8.3545979,24.043151 5.2944217,21.55996 7.8852404,16.381546 10.993845,15.099854 Z"/>
 <path style="fill:none;stroke:#81ff86;stroke-width:2" d="m 10.993845,14.1 c 7.255828,-2.828973 14.531327,0.318514 14.015155,5.917006 -0.184718,2.003486 -3.110582,3.22499 -5.193967,2.969987 -3.545159,-0.433919 -6.735079,-4.37169 -8.068879,-6.855295 C 10.17669,13.209273 10.864757,6.2111379 15.292065,5.998 18.406354,6.2146092 19.409626,9.3499855 19.805,11.22802 21.375324,18.687109 13.036145,26.842154 8.3545979,23.043297 5.2944217,20.560106 7.8852404,15.381692 10.993845,14.1 Z"/>
 <path style="fill:#ffffff;opacity:0.1" d="M 16 2 A 14 14 0 0 0 2 16 A 14 14 0 0 0 2.0214844 16.414062 A 14 14 0 0 1 16 3 A 14 14 0 0 1 29.978516 16.585938 A 14 14 0 0 0 30 16 A 14 14 0 0 0 16 2 z"/>
</svg>
